X:1
T:"Peter Kennedy's Fancy"  (reel) 1275
T:"Peter Kennedy's Fancy"  (reel) 1275
T:after Miss Kennedy
C:after Miss Kennedy
L:1/8
M:4/4
K:C
V:1 treble 
V:1
 BEA |SOSOOO .!fermata!PMTuC(MBA)"^Segno" | G2 GG G2 (BA) | GABA GE (TED) | EGGA GABd | %5
 (3(e^fg) dB (TBA)AB | G2 GG G2 (BA) | GABA GE (TED) | EGGA GABd | egdB BA A2!fine! || %10
 d2 (gd) edgd | d2 (gd) BAAB | d2 (gd) ede^f |{a} gedB (TBA)AB | d2 (gd) edgd | %15
 d2{a} (gd) (TBA)AB | c2 cA TBABd | (3(e^fg) dB BAAB!D.S.! |] %18

